!!!!SEGMENT: pl-wumfc--n47524--002_karlowicz-mieczyslaw--szesc-piesni-op-6-no-2-skad-pierwsze-gwiazdy.krn
!!!cenid: 18xx:4244
!!!COM: Karłowicz, Mieczysław
!!!COM-rismID: pe30108288
!!!CDT: 1876/12/11-1909/02/08
!!!CNT: Polish
!!!GTL: Sześć pieśni op. 6
!!!OTL: No. 2 Skąd pierwsze gwiazdy...
!!!OMV: 002
!!!PDT: 1897
!!!AGN:
!!!SMS-siglum: PL-Wumfc
!!!SMS-shelfmark: N47524
!!!SMS-shelfwork: 001-002 G
!!!SMS-variant:
!!!SMS-altvar:
!!!NIFC-rismSourceID: 1001177915
!!!NIFC-rismChildID: 1001177915
!!!NIFC-islandoraID: pl-wumfc:8021
!!!URL-pdf-islandora: https://repozytorium.nifc.pl/islandora/object/pl-wumfc:8021/datastream/PDF/view
!!!URL-scan: https://polish.musicsources.pl/pl/lokalizacje/galeria/druki-muzyczne/12515/3 @EN{Scan on Polish Music Sources Website} @PL{Skany w portalu Dziedzictwo Muzyki Polskiej w otwartym dostępie}
!!!ONB-nifc: Skan 0003
!!!AIN: 2 piano 1 vox
!!!key: e
**kern	**kern	**dynam	**kern	**text	**dynam
*part3	*part2	*part2	*part1	*part1	*part1
*staff3	*staff2	*	*staff1	*staff1	*
*I"[Piano.]	*I"[Piano.]	*	*I"Voce]	*	*
*I'pf	*I'pf	*	*I'V	*	*
*ICklav	*ICklav	*	*ICvox	*	*
*Ipiano	*Ipiano	*	*Ivox	*	*
*clefF4	*clefG2	*	*clefG2	*	*
*k[f#]	*k[f#]	*	*k[f#]	*	*
*e:	*e:	*	*e:	*	*
*M4/4	*M4/4	*	*M4/4	*	*
*met(c)	*met(c)	*	*met(c)	*	*
=1	=1	=1	=1	=1	=1
*^	*	*	*	*	*
!	!	!	!	!LO:TX:a:t=Mesto. M.M [quarter] = 66.	!	!
(2G/	1C 1A#X	4ee\	mf	1r	.	.
.	.	2e/	.	.	.	.
2F#/)	.	.	.	.	.	.
.	.	8d#X/L	.	.	.	.
.	.	[8e/J	.	.	.	.
=2	=2	=2	=2	=2	=2	=2
*	*	*^	*	*	*	*
(2F#/	1BB 1B	2.b/	4e\]	>	1r	.	.
.	.	.	2d#X\	.	.	.	.
2Fn/)	.	.	.	.	.	.	.
.	.	4a/ [4b	[4B/	]	.	.	.
*v	*v	*	*	*	*	*	*
=3	=3	=3	=3	=3	=3	=3
2E\ 2G	4B/] 4g 4b]	4ryy	p	8r	.	.
.	.	.	.	8b\	Skąd	.
.	(>4e/ 4g 4b	4ryy	.	8b\	pierw-	.
.	.	.	.	8b\	-sze	.
2AA\ 2A	4a/ 4cc	2e\	.	4cc\	gwiaz-	.
.	4g/ 4ee	.	.	8ee\	-dy	.
.	.	.	.	8ee\	na	.
!!LO:LB:g=original	!	!	!	!	!	!
=4	=4	=4	=4	=4	=4	=4
*^	*	*^	*	*	*	*
2A/	4D\	4d/ 4f# 4dd	4ryy	2ryy	.	4dd\	nie-	.
.	4F#\	[4e-X/ [<4a/ 4cc	4ryy	.	.	8cc\	-bie	.
.	.	.	.	.	.	8cc\	za-	.
2G/	4G\	2b/)	4e-\]	8a\L]	.	4b\	-świe-	.
.	.	.	.	8f#\J	.	.	.	.
.	4GG\	.	4d\ 4g	4ryy	.	8b\	-cą,	.
.	.	.	.	.	.	8b\	Tam	.
*v	*v	*	*	*	*	*	*	*
*	*	*v	*v	*	*	*	*
=5	=5	=5	=5	=5	=5	=5
2C\ 2G	2B/ (>2e 2b	2ryy	.	8e/	pój-	.
.	.	.	.	8e/	-dę,	.
.	.	.	.	8f#/	az	.
.	.	.	.	8g/	za	.
2FF#/ 2F#	4a/	2c\ 2e	.	4a/	ciem-	.
.	4cc/	.	.	4cc\	-nych	.
=6	=6	=6	=6	=6	=6	=6
*^	*	*	*	*	*	*
4.B/	2BB\	4f#/	2d#X\	.	4.b\	skał	.
.	.	8g/L	.	.	.	.	.
8A/	.	8f#/J	.	.	8f#/	kra-	.
4G/	4.E\	4B/4e)	4ryy	.	4g/	-wę-	.
4ryy	.	4B/ 4e 4g	4ryy	.	4g/	-dzie.	.
.	8D\	.	.	.	.	.	.
*v	*v	*	*	*	*	*	*
!!LO:LB:g=original	!	!	!	!	!	!
=7	=7	=7	=7	=7	=7	=7
!	!	!	!	!	!	!LO:HP:a
4C\ 4c	(2g/	4e\	<	4ee\	Spoj-	<
4BB\ 4B	.	4d\	.	8dd\	-rzę	.
.	.	.	.	8dd\	w le-	.
4AA/ 4A	4c/ 4a	2e\	.	4cc\	-cą-	.
4GG/ 4G	4B/ 4b	.	.	8b\	-ce	.
.	.	.	.	8b\	po	.
*	*v	*v	*	*	*	*
=8	=8	=8	=8	=8	=8
4FF#X/ 4F#X	4c#X/ 4e 4a#X 4cc#X	.	4a#X/	nie-	.
4FFn/ 4Fn	4d#X/ 4an 4b 4dd#X	.	8an/	-bie	.
.	.	.	8a/	ła-	.
4EE/ 4E	2e/) 2g#X 2b 2ee	.	4g#X/	-bę-	.
4DD#X/ 4D#X	.	.	8g#/	-dzie	.
.	.	.	8g#/	I	.
=9	=9	=9	=9	=9	=9
*^	*^	*	*	*	*
4C#X/	4CC#X/	4e/ 4g#X 4b 4ee	4ryy	.	4.g#X/	tam	.
4C#/	4ryy	4B/ 4e 4b	4ryy	.	.	.	.
.	.	.	.	.	8gn/	po-	.
(4F#/	2FF#\	(2B/ 2b	4d#X\	>	4f#/	-le-	.
8E/L	.	.	8gny\L	.	8b\	-cę,	.
8D#X/J)	.	.	8f#\J	.	8f#/	gdzie	.
!!LO:PB:g=original	!	!	!	!	!	!	!
=10	=10	=10	=10	=10	=10	=10	=10
4C#X/	2FF#\	4.e/ 4.g#X	4B\	.	4g#X/	o-	.
2F#/	.	.	4A#X\	.	8e/	-ne	.
.	.	8e/	.	.	8g#/	po-	.
.	2BB\	2B/ 2d#X)	2ryy	]	4f#/	-le-	.
4B/	.	.	.	.	4f#/	-cą.	.
*v	*v	*	*	*	*	*	*
=11	=11	=11	=11	=11	=11	=11
2BB\ 2A	2B/ 2d#X 2b	(4f#\	f	1r	.	.
.	.	8g\L	.	.	.	.
.	.	8f#\J)	.	.	.	.
2BB\ 2G 2B	(4ee/	2e\	.	.	.	.
.	4b/)	.	.	.	.	.
=12	=12	=12	=12	=12	=12	=12
*^	*	*	*	*	*	*
2A#X\	2BB\	(4g/	2c#X\ 2e	.	2r	.	.
.	.	8a/L	.	.	.	.	.
.	.	8g/J)	.	.	.	.	.
4BB\ 4B	4ryy	(4f#/	2d#X\	.	4r	.	.
!	!	!	!	!	!LO:TX:a:B:t=Più mosso.	!	!LO:DY:a
8.B/L	4B\	4b/)	.	mf	8b\	Bo	f
.	.	.	.	.	8b\	i	.
[16B/Jk	.	.	.	.	.	.	.
*	*	*v	*v	*	*	*	*
!!LO:LB:g=original	!	!	!	!	!	!
=13	=13	=13	=13	=13	=13	=13
4B/]	2A\	2d#X/ 2cc	.	4cc\	tu,	.
8.B/L	.	.	.	8r	.	.
.	.	.	.	8cc\	i	.
[16B/Jk	.	.	.	.	.	.
4B/]	2G\	2e/ 2b	.	4b\	tam,	.
8.B/L	.	.	.	8r	.	.
.	.	.	.	8b\	za	.
[16B/Jk	.	.	.	.	.	.
=14	=14	=14	=14	=14	=14	=14
4B/]	2G\	2e/ 2a#X 2cc#X	.	4ee\	mo-	.
8.B/L	.	.	.	8ee\	-rzem,	.
.	.	.	.	8ee\	i	.
[16B/Jk	.	.	.	.	.	.
!	!	!	!	!	!	!LO:DY:a
4B/]	2F#\	4d#X/ 4an 4dd#X	<	4dd#X\	wszę-	<
8.B/L	.	4b\ 4bb	.	8b\	-dzie,	.
.	.	.	.	8b\	Gdzie	.
16B/Jk	.	.	.	.	.	.
=15	=15	=15	=15	=15	=15	=15
*	*	*^	*	*	*	*
*	*	*	*^	*	*	*	*
4B/ 4e	2E\	(4.gg/	2g\	4b\	[	4.gg\	tyl-	[
4c#X/	.	.	.	4b-X\	.	.	.	.
!	!	!	!LO:TX:b:t=dim._:dur=e2qh:ext=ud:problem:text with extention lines 	!	!	!LO:TX:a:t=dim._:dur=5e2q:ext=ud:problem:text with extention lines 	!	!LO:DY:a
.	.	8ee/	.	.	>	8ee\	-ko	>
4d/	2F#\	4dd/	2a\	2r	.	4dd\	po-	.
[4e-X/	.	4cc/	.	.	.	8cc\	-ślę	.
.	.	.	.	.	.	8cc\	przed	.
*	*	*	*v	*v	*	*	*	*
!!LO:LB:g=original	!	!	!	!	!	!	!
=16	=16	=16	=16	=16	=16	=16	=16
4e-/]	2G\	[2b/)	2g\	.	4b\	so-	.
4d/	.	.	.	.	8a#X/	-bą	.
.	.	.	.	]]	8b\	myśl	]]
!	!	!	!	!	!	!	!LO:DY:a
2C\ 2c	2ryy	2e/ 2g 2ee	4b\]	p	4ee\	bied-	p
.	.	.	4a\	.	4ee\	-ną.	]]
*v	*v	*	*	*	*	*	*
=17	=17	=17	=17	=17	=17	=17
!	!	!	!	!LO:TX:a:B:t=Tempo I.	!	!LO:DY:a
2FF#/ 2F#	4e/ 4ee	2a\ 2cc	] f	4ee\	Zaw-	f
.	4d#X/ 4dd#X	.	.	8dd#X\	-sze	.
.	.	.	.	8cc\	mi	.
!	!	!LO:TX:b:t=molto dim._:dur=3q2eh:ext=ud:problem:text with extention lines 	!	!LO:TX:t=molto dim._:dur=3q4e:ext=ud:problem:text with extention lines 	!	!
2GG/ 2G	4c/ 4cc	2e\	>	4cc\	smut-	>
.	4B/ 4b	.	.	8b\	-no	.
.	.	.	.	8b\	i	.
=18	=18	=18	=18	=18	=18	=18
2AA\ 2A	(4fn/ 4a	2c\	.	4a/	wszę-	.
.	8g/L	.	.	8g/	-dzie	.
.	8f/J	.	]]	8fn/	mi	.
2AA#X\ 2G	2e/)	2c#X\	.	4e/	jed-	]
.	.	.	.	8e/	-no,	.
.	.	.	.	8e/	I	.
!!LO:LB:g=original	!	!	!	!	!	!
=19	=19	=19	=19	=19	=19	=19
*^	*	*	*	*	*	*
!	!	!	!	!	!	!	!LO:DY:a
2.G/	2AA#X\	4r	2cn\ 2e	] p	4e/	wszę-	p
.	.	(4cc/	.	.	8d#X/	-dzie	.
!	!	!	!LO:TX:b:t=cresc._:dur=2e5q:ext=ud:problem:text with extention lines 	!	!LO:TX:t=cresc._:dur=2e3qh:ext=ud:problem:text with extention lines 	!	!
.	.	.	.	<	8e/	mi	<
.	2BB\	4b/	[2B\ [2e	.	4g/	źle	.
[4E/	.	[4g/)	.	.	8r	.	.
.	.	.	.	.	8g/	i	.
=20	=20	=20	=20	=20	=20	=20	=20
*	*	*	*^	*	*	*	*
4E/]	2C\	4e/] 4g]	2B\]	4ryy	.	2b\	wiem,	.
(8G/L	.	(8e/L	.	4e\	.	.	.	.
8A/J	.	8f#/J	.	.	.	.	.	.
4B/)	2BB\	4g/)	2d#X\	2ryy	.	4b\	że	.
4A/	.	4f#/ 4b	.	.	[[	4b\	źle	[[
=21	=21	=21	=21	=21	=21	=21	=21	=21
!	!	!	!	!	!	!	!	!LO:DY:a
4EE/ 4G#X	4ryy	2ee/	4dn\ 4e 4g#X	4cc/	[ f	2ee\	bę-	ff
4E\ 4d	4ryy	.	4e\ 4g#	8b/L	.	.	.	.
.	.	.	.	8cc/J	.	.	.	.
4c/	2E\	(8a/L 8ee	2e\	2ryy	.	4ee\	-dzie!	.
.	.	8a/	.	.	.	.	.	.
8B/L	.	8gn/	.	.	.	4r	.	.
8A/J 8c	.	8f#/J 8a	.	.	.	.	.	.
*v	*v	*	*	*	*	*	*	*
*	*v	*v	*v	*	*	*	*
=22	=22	=22	=22	=22	=22
4E\ 4G 4B	4e/) 4g 4b	.	1r	.	.
4EE/ 4BB 4E	4B/ 4e 4g 4b	ff	.	.	.
2EE/ 2BB 2E	2B/ 2e 2g 2b	.	.	.	.
==	==	==	==	==	==
*-	*-	*-	*-	*-	*-
!!!system-decoration: s1{(s2,s3)}
!!!RDF**kern: > = above
!!!RDF**kern: < = below
!!!ENC: Andrzej Gręziak
!!!END: 2022-11-23
!!!ENC: Jan Barakat
!!!END: 2022-12-08
!!!YEC: Copyright 2022 Narodowy Instytut Fryderyka Chopina (https://polishscores.org)
!!!YEM: License CC-BY-4.0 (https://creativecommons.org/licenses/by/4.0)
